X:31
T:My Darling Asleep
N:For whistle teaching purposes, from Alan Ng
Z: id:ng-jigs-31 transcribed by Alan Ng alan@alan-ng.nospam (net) 28 Apr. 2004
M:6/8
L:1/8
K:D
|fed cAA|BAG A2G|FAA def|~g3 ezg|fdd cAA|BAG A2G|FAA def|gec d2:|*
|:FAA dAA|FAA BGG|FAA def|~g3 ezg|fdd cAA|BAG A2G|FAA def|gec d2:|**
